X: 679
P: Longways for as many as will
M: 6/4
L: 1/4
K: D
|: g/f/ |\
g>fg eag | fa2- a2g/f/ | g>a g/f/ ef^d | e3- e2(c/B//c//) |\
d>cB A>GF | G>AB E2d/c/ | dFd E2D | D3- D2 :|

